symbols/web/pattern/materialsymbolsoutlined/pattern_grad200_24px.svg

<svg xmlns="http://www.w3.org/2000/svg" height="24" width="24"><path d="M5.5 21q-1.05 0-1.775-.725Q3 19.55 3 18.5q0-1.05.725-1.775Q4.45 16 5.5 16q.225 0 .45.038.225.037.45.112l3.25-3.25q-.275-.7-.112-1.425.162-.725.687-1.25t1.25-.688q.725-.162 1.425.113l3.25-3.25-.1-.45Q16 5.725 16 5.5q0-1.05.725-1.775Q17.45 3 18.5 3q1.05 0 1.775.725Q21 4.45 21 5.5q0 1.05-.725 1.775Q19.55 8 18.5 8q-.3 0-.9-.15l-3.25 3.25q.275.7.113 1.425-.163.725-.688 1.25-.525.525-1.25.687-.725.163-1.425-.112L7.95 17.5H9.7q.325-.675.937-1.087Q11.25 16 12 16t1.375.4q.625.4.925 1.1h1.9q.325-.675.938-1.087Q17.75 16 18.5 16q1.05 0 1.775.725Q21 17.45 21 18.5q0 1.05-.725 1.775Q19.55 21 18.5 21q-.75 0-1.362-.413-.613-.412-.938-1.087h-1.9q-.325.675-.937 1.087Q12.75 21 12 21t-1.363-.413q-.612-.412-.937-1.087H7.8q-.325.675-.937 1.087Q6.25 21 5.5 21Zm0-6.5q-1.05 0-1.775-.725Q3 13.05 3 12q0-1.05.725-1.775Q4.45 9.5 5.5 9.5q1.05 0 1.775.725Q8 10.95 8 12q0 1.05-.725 1.775-.725.725-1.775.725Zm0-6.5q-1.05 0-1.775-.725Q3 6.55 3 5.5q0-1.05.725-1.775Q4.45 3 5.5 3q1.05 0 1.775.725Q8 4.45 8 5.5q0 1.05-.725 1.775Q6.55 8 5.5 8ZM12 8q-1.05 0-1.775-.725Q9.5 6.55 9.5 5.5q0-1.05.725-1.775Q10.95 3 12 3q1.05 0 1.775.725.725.725.725 1.775 0 1.05-.725 1.775Q13.05 8 12 8Zm6.5 6.5q-1.05 0-1.775-.725Q16 13.05 16 12q0-1.05.725-1.775Q17.45 9.5 18.5 9.5q1.05 0 1.775.725Q21 10.95 21 12q0 1.05-.725 1.775-.725.725-1.775.725Z"/></svg>

<svg xmlns="http://www.w3.org/2000/svg" height="24" width="24"><path d="M5.5 8Q4.45 8 3.725 7.275Q3 6.55 3 5.5Q3 4.45 3.725 3.725Q4.45 3 5.5 3Q6.55 3 7.275 3.725Q8 4.45 8 5.5Q8 6.55 7.275 7.275Q6.55 8 5.5 8ZM5.5 21Q4.45 21 3.725 20.275Q3 19.55 3 18.5Q3 17.45 3.725 16.725Q4.45 16 5.5 16Q5.75 16 5.975 16.038Q6.2 16.075 6.4 16.15L9.65 12.9Q9.375 12.225 9.525 11.5Q9.675 10.775 10.225 10.225Q10.775 9.675 11.5 9.525Q12.225 9.375 12.9 9.65L16.15 6.4Q16.1 6.175 16.05 5.95Q16 5.725 16 5.5Q16 4.45 16.725 3.725Q17.45 3 18.5 3Q19.55 3 20.275 3.725Q21 4.45 21 5.5Q21 6.55 20.275 7.275Q19.55 8 18.5 8Q18.275 8 18.05 7.95Q17.825 7.9 17.6 7.85L14.35 11.1Q14.625 11.775 14.475 12.5Q14.325 13.225 13.775 13.775Q13.225 14.325 12.5 14.475Q11.775 14.625 11.1 14.35L7.95 17.5H9.7Q10.025 16.8 10.65 16.4Q11.275 16 12 16Q12.75 16 13.375 16.4Q14 16.8 14.3 17.5H16.2Q16.525 16.8 17.15 16.4Q17.775 16 18.5 16Q19.55 16 20.275 16.725Q21 17.45 21 18.5Q21 19.55 20.275 20.275Q19.55 21 18.5 21Q17.775 21 17.15 20.575Q16.525 20.15 16.2 19.5H14.3Q14 20.15 13.375 20.575Q12.75 21 12 21Q11.275 21 10.65 20.575Q10.025 20.15 9.7 19.5H7.8Q7.5 20.15 6.875 20.575Q6.25 21 5.5 21ZM12 8Q10.95 8 10.225 7.275Q9.5 6.55 9.5 5.5Q9.5 4.45 10.225 3.725Q10.95 3 12 3Q13.05 3 13.775 3.725Q14.5 4.45 14.5 5.5Q14.5 6.55 13.775 7.275Q13.05 8 12 8ZM5.5 14.5Q4.45 14.5 3.725 13.775Q3 13.05 3 12Q3 10.95 3.725 10.225Q4.45 9.5 5.5 9.5Q6.55 9.5 7.275 10.225Q8 10.95 8 12Q8 13.05 7.275 13.775Q6.55 14.5 5.5 14.5ZM18.5 14.5Q17.45 14.5 16.725 13.775Q16 13.05 16 12Q16 10.95 16.725 10.225Q17.45 9.5 18.5 9.5Q19.55 9.5 20.275 10.225Q21 10.95 21 12Q21 13.05 20.275 13.775Q19.55 14.5 18.5 14.5Z"/></svg>
